docs/img/footer/facebook_Color-1.svg

<svg width="40" height="40" viewBox="0 0 40 40" fill="none" xmlns="http://www.w3.org/2000/svg">
<g id="Facebook">
<path id="back" fill-rule="evenodd" clip-rule="evenodd" d="M0 20C0 8.95431 8.95431 0 20 0C31.0457 0 40 8.95431 40 20C40 31.0457 31.0457 40 20 40C8.95431 40 0 31.0457 0 20Z" fill="#3B5998"/>
<path id="Shape" fill-rule="evenodd" clip-rule="evenodd" d="M21.4171 31.0936V20.2125H24.4207L24.8188 16.4628H21.4171L21.4222 14.5861C21.4222 13.6081 21.5151 13.0841 22.9197 13.0841H24.7975V9.33398H21.7934C18.1851 9.33398 16.915 11.153 16.915 14.212V16.4632H14.6658V20.2129H16.915V31.0936H21.4171Z" fill="white"/>
</g>
</svg>

<svg width="40" height="40" fill="none" xmlns="http://www.w3.org/2000/svg"><g fill-rule="evenodd" clip-rule="evenodd"><path d="M0 20C0 8.954 8.954 0 20 0s20 8.954 20 20-8.954 20-20 20S0 31.046 0 20z" fill="#3B5998"/><path d="M21.417 31.094V20.212h3.004l.398-3.75h-3.402l.005-1.876c0-.978.093-1.502 1.498-1.502h1.877v-3.75h-3.004c-3.608 0-4.878 1.819-4.878 4.878v2.251h-2.25v3.75h2.25v10.88h4.502z" fill="#fff"/></g></svg>
